source/img/sprite/pin.svg

<svg width="16" height="16" viewBox="0 0 16 16" fill="none" xmlns="http://www.w3.org/2000/svg">
<path d="M8.49981 2C6.01874 2 4 3.98191 4 6.41796C4 7.05338 4.13247 7.66006 4.39354 8.2213C5.51862 10.6383 7.67571 13.1902 8.31017 13.9146C8.35771 13.9688 8.42701 14 8.49994 14C8.57287 14 8.64217 13.9688 8.6897 13.9146C9.32392 13.1903 11.481 10.6386 12.6065 8.2213C12.8677 7.66006 13 7.05338 13 6.41796C12.9998 3.98191 10.981 2 8.49981 2ZM8.49981 8.71267C7.21099 8.71267 6.16234 7.68315 6.16234 6.41784C6.16234 5.15241 7.21099 4.12289 8.49981 4.12289C9.78864 4.12289 10.8373 5.15241 10.8373 6.41784C10.8374 7.68315 9.78876 8.71267 8.49981 8.71267Z" fill="white"/>
</svg>

<svg width="16" height="16" fill="none" xmlns="http://www.w3.org/2000/svg"><path d="M8.5 2A4.46 4.46 0 0 0 4 6.42c0 .63.13 1.24.4 1.8a27.84 27.84 0 0 0 3.91 5.7.25.25 0 0 0 .38 0c.63-.73 2.8-3.28 3.92-5.7.26-.56.39-1.17.39-1.8A4.46 4.46 0 0 0 8.5 2Zm0 6.71a2.32 2.32 0 0 1-2.34-2.3c0-1.26 1.05-2.29 2.34-2.29a2.32 2.32 0 0 1 2.34 2.3c0 1.26-1.05 2.3-2.34 2.3Z" fill="#fff"/></svg>
